X: 2023
T: Perth-Shire Hunt    Reel
%R: reel
B: Niel Gow & Sons "A Second Collection of Strathspey Reels, etc." v.2 p.2 #3
Z: 2022 John Chambers <jc:trillian.mit.edu>
N: Bar 3 of the 2nd strain has odd beaming; not fixed.
M: C|
L: 1/8
K: A
% - - - - - - - - - -
V: 1 staves=2
F |\
TE2CE A,ECE | A,ECE FB,B,F | TE2CE A,ECA | ceBd cAA :| e | (c/B/A) eA fAeA | (c/B/A) ec fBBe |
(c/B/A) eAfA eA | TE>FAB cAAe || (c/B/A) eA fAeA | (c/B/A) ec fBBd | ceAc dfB>c | TE>FAB cAA |]
% - - - - - - - - - -
% Voice 2 preserves the staff layout in the book.
V: 2 clef=bass middle=d
z | A2A2 A2A2 | A2A2 B2B2 | c2A2 A2A2 | e2E2 A2A :| z | a2a2 a2a2 | a2a2 b2b2 |
a2a2 a2a2 | e2e2 A2A2 || a2a2 a2a2 | a2a2 b2b2 | a2a2 d2d2 | e2E2 A2A |]
